**kern	**kern	**dynam
*part1	*part1	*part1
*staff2	*staff1	*
*I"Piano	*	*
*clefF4	*clefG2	*
*k[f#c#]	*k[f#c#]	*
=1	=1	=1
2.AAA 2.AA	8r	.
.	8AL	.
.	8c#XJ	.
.	8eL	.
.	8c#	.
.	8AJ	.
=	=	=
4r	4a	.
8r	8aa	.
.	8qbb/	.
*clefG2	*	*
8f#L	8ddL 8aa	.
8e#X	8dd 8gg#X	.
8f#J	8ddJ 8aa	.
=	=	=
4g	4dd 4bb	.
8r	8r	.
4e 4a	4cc# 4gg	.
8d 8a	8dd 8ff#	.
=	=	=
*	*^	*
4.c# 4.gn	(8dd#X	4.a	.
.	4ee)	.	.
*	*v	*v	*
*clefF4	*	*
8GL 8A	8c#L 8e	.
8G 8A	8B#X 8d#X	.
8GJ 8A	8c#J 8e	.
=	=	=
*	*^	*
4F# 4A	4dn 4a	2.r	.
8r	8r	.	.
4AA	4Gn 4c# 4e 4a	.	.
8r	8r	.	.
*	*v	*v	*
=	=	=
4DD	8G#XL 8B 8d 8e#X	.
.	8AJ 8d 8f#	.
*clefG2	*	*
8f#	8dd 8aa	.
8qg/	8qbb/	.
8f#L	8ddL 8aa	.
8e#X	8dd 8gg#X	.
8f#J	8ddJ 8aa	.
=	=	=
*	*^	*
4g	8ccc#L	4dd	.
.	8bbJ	.	.
8r	8rdd	8rff	.
4e	8aaL	4b 4ee	.
.	8ggJ	.	.
8r	8rdd	8rff	.
=	=	=	=
4c# 4gn	8ff#L	4a	.
.	8eeJ	.	.
*	*v	*v	*
*clefF4	*	*
8r	8r	.
!	!	!LO:DY:a
8dL	8dL	<
8c#	8d 8e	.
8cnJ	8dJ 8f#	.
=	=	=
*-	*-	*-
!!!system-decoration: {(s1,s2)}
